X: 51
T:Mrs. McLeoad. GS.051
T:Miss or Mrs McLeod,aka. GS.051
M:2/2
L:1/8
Q:200
S:George Spencer m/s, Leeds,1831
R:Reel
O:England
A:Leeds
N:This sounds as if it should be in A major with a G#, but it is in the
N:'pipe scale'
N:with G natural...'1831' is written on the stave after the final double
N:bar..Cherri.
H:1831
Z:vmp.Cherri Graebe
K:D major
A2 a2 f>efa |  c>cc>B c2 cB | A2a2 f>efa | B>BB>A B2 Bc | A2a2 f>efa |!
c>cc>B c2 ce |
 f>gfe f2 (ef/2g/2) | a2 ec B2 Bc :||: A>Ac>A ecca | c>cc>Bc2 cB | A>Ac>
A ecca | !B>BB>A B2 Bc |
A>Ac>A ecca | c>cc>B c2 ce | f>gfe f2 (ef/2g/2) | a2 ec B2 Bc :||
